templates/main/source/images/mir.svg

<svg xmlns="http://www.w3.org/2000/svg" xmlns:xlink="http://www.w3.org/1999/xlink" width="67" height="19" viewBox="0 0 67 19">
  <defs>
    <polygon id="mir-a" points="0 .183 65.678 .183 65.678 18.806 0 18.806"/>
  </defs>
  <g fill="none" fill-rule="evenodd">
    <g transform="translate(0 .011)">
      <mask id="mir-b" fill="#fff">
        <use xlink:href="#mir-a"/>
      </mask>
      <path fill="#3DA536" d="M47.5885633,8.69845204 C53.6177673,8.65773776 59.6485224,8.69845204 65.6777265,8.67848265 C65.4745429,9.50905408 64.9371143,10.2238806 64.3688592,10.8471969 C63.2468898,12.0651357 61.6342163,12.8082684 59.976951,12.8518908 C57.7748898,12.8633296 55.5720531,12.8501459 53.3688286,12.8586765 C53.3556449,14.8414622 53.3688286,16.8232786 53.3632061,18.8060643 C51.4422673,18.7975337 49.5201653,18.8118806 47.5980633,18.7975337 C47.5885633,15.4318194 47.6075633,12.0651357 47.5885633,8.69845204 M26.2676551,0.206421429 C28.1858796,0.176952041 30.1060429,0.221543878 32.0242673,0.18257449 C32.0547061,3.86256429 32.0281449,7.54332959 32.0376449,11.2233194 C32.2018592,11.3704724 32.5035327,11.4158398 32.6041551,11.1719418 C33.8818082,8.49429898 35.1536449,5.81394184 36.4301347,3.13552347 C36.8345633,2.30398265 37.1631857,1.40225816 37.8227571,0.730278571 C38.1178388,0.451288776 38.4852367,0.180635714 38.912349,0.199829592 C40.8685735,0.200605102 42.824798,0.187421429 44.781798,0.206421429 C44.7847061,6.40255408 44.7847061,12.5986867 44.781798,18.7946255 C42.862798,18.8099418 40.9426347,18.8089724 39.0222776,18.7955949 C39.021502,15.125299 39.0300327,11.4538398 39.0185939,7.78354388 C39.0137469,7.46829898 38.4803898,7.49408469 38.4253286,7.77695204 C37.2217367,10.4324929 36.0231857,13.0901663 34.8205633,15.745901 C34.4502571,16.5516561 34.0991449,17.3824214 33.5467878,18.0846459 C33.2391041,18.4756969 32.7902776,18.8270031 32.2673898,18.8031561 C30.2685122,18.8023806 28.2684714,18.8060643 26.2695939,18.8014112 C26.2695939,12.6033398 26.272502,6.40429898 26.2676551,0.206421429 M0.000736734694,0.194962472 C2.02423673,0.200605102 4.04793061,0.197890816 6.0724,0.195952041 C7.02530816,0.183737755 7.97937959,0.675217347 8.49935918,1.47825816 C8.98347143,2.1653602 9.1676551,2.99690102 9.40593061,3.78850306 C10.1385939,6.25637041 10.8600122,8.72792143 11.5946143,11.1955949 C11.6070224,11.418748 11.9371959,11.5040541 12.0017571,11.2669418 C12.7516755,8.77542143 13.4748388,6.27614592 14.2191347,3.78288061 C14.4744714,2.9038398 14.6945224,1.97090102 15.2897265,1.24851327 C15.6722469,0.780686735 16.2075429,0.447411224 16.7893694,0.291727551 C17.2847265,0.15407449 17.8041245,0.206421429 18.3118898,0.197890816 C20.0887776,0.204482653 21.8664408,0.18257449 23.6433286,0.209135714 C23.6309204,6.40817653 23.6499204,12.6072173 23.6328592,18.8050949 C21.7107571,18.7928806 19.7876857,18.8221561 17.8657776,18.7899724 C17.8657776,15.1536051 17.8743082,11.5176255 17.8619,7.88125816 C17.8494918,7.55748265 17.3143898,7.58501327 17.2783286,7.88978878 C16.1334816,11.5222786 14.9812673,15.1528296 13.8536755,18.7899724 C12.4963388,18.8211867 11.1370633,18.7963704 9.77895102,18.8023806 C8.63604286,15.1696969 7.50185918,11.5344929 6.34770612,7.90588061 C6.29923673,7.60595204 5.94521633,7.59567653 5.75444082,7.77113571 C5.75831837,11.4453092 5.74978776,15.1196765 5.75831837,18.79385 C3.83912449,18.8175031 1.91993061,18.7946255 0.000736734694,18.8050949 C-0.000232653061,12.601401 -0.000232653061,6.39867653 0.000736734694,0.194962472" mask="url(#mir-b)"/>
    </g>
    <path fill="#008CD2" d="M46.8558418,0.216677551 C51.3603929,0.211055102 55.8653316,0.207177551 60.3698827,0.21202449 C61.5517602,0.296361224 62.6927296,0.775626531 63.6285765,1.49510612 C64.9874643,2.55348367 65.9045051,4.17759592 66.0553418,5.89845306 C66.0904337,6.51808571 66.0780255,7.14275918 65.9861276,7.75676939 C63.2260867,7.77286122 60.465852,7.75773878 57.7056173,7.76161633 C56.7583316,7.75289184 55.8054235,7.80039184 54.8649235,7.6608 C52.7454541,7.39227959 50.6554541,6.5095551 49.1538724,4.96144286 C47.8874643,3.69251429 47.1074949,1.98212653 46.8558418,0.216677551"/>
  </g>
</svg>

<svg xmlns="http://www.w3.org/2000/svg" xmlns:xlink="http://www.w3.org/1999/xlink" width="67" height="19" viewBox="0 0 67 19"><defs><path id="mir-a" d="M0 .183h65.678v18.623H0z"/></defs><g fill="none" fill-rule="evenodd"><g transform="translate(0 .011)"><mask id="mir-b" fill="#fff"><use xlink:href="#mir-a"/></mask><path fill="#3DA536" d="M47.589 8.698c6.029-.04 12.06 0 18.089-.02-.203.831-.74 1.546-1.31 2.17a6.262 6.262 0 01-4.391 2.004c-2.202.011-4.405-.002-6.608.007-.013 1.982 0 3.964-.006 5.947-1.92-.008-3.843.006-5.765-.008-.01-3.366.01-6.733-.01-10.1M26.269.206c1.918-.029 3.838.016 5.756-.023.03 3.68.004 7.36.014 11.04.164.147.466.193.566-.051 1.278-2.678 2.55-5.358 3.826-8.036.405-.832.733-1.734 1.393-2.406.295-.279.662-.55 1.09-.53 1.956 0 3.912-.013 5.869.006.003 6.197.003 12.393 0 18.589-1.92.015-3.84.014-5.76 0 0-3.67.008-7.341-.003-11.011-.005-.316-.539-.29-.594-.007-1.203 2.655-2.402 5.313-3.604 7.969-.37.806-.722 1.636-1.274 2.339-.308.39-.757.742-1.28.718-1.998 0-3.999.003-5.997-.002 0-6.198.003-12.397-.002-18.595M0 .195c2.023.006 4.047.003 6.071.001C7.025.184 7.98.676 8.5 1.478c.484.687.669 1.519.907 2.31.733 2.468 1.454 4.94 2.189 7.408.012.223.342.308.407.07.75-2.49 1.473-4.99 2.217-7.483.255-.88.476-1.812 1.07-2.534a2.918 2.918 0 011.5-.957c.496-.138 1.015-.086 1.523-.094 1.777.006 3.554-.015 5.331.011-.012 6.2.007 12.398-.01 18.596-1.922-.012-3.845.017-5.767-.015 0-3.636.008-7.272-.004-10.909-.013-.324-.548-.296-.584.009-1.145 3.632-2.297 7.263-3.424 10.9-1.358.031-2.717.006-4.075.012-1.143-3.632-2.277-7.268-3.431-10.896-.049-.3-.403-.31-.594-.135.004 3.674-.004 7.349.004 11.023-1.919.024-3.838 0-5.757.011V.195" mask="url(#mir-b)"/></g><path fill="#008CD2" d="M46.856.217C51.36.21 55.866.207 60.37.212c1.182.084 2.323.564 3.259 1.283 1.358 1.058 2.276 2.683 2.426 4.403.035.62.023 1.245-.069 1.859-2.76.016-5.52 0-8.28.005-.948-.01-1.9.038-2.841-.101-2.12-.269-4.21-1.151-5.711-2.7-1.267-1.268-2.047-2.979-2.298-4.744"/></g></svg>
